X:108 
T:Limerick Minstrel (reel), The
B:MFC.018B
F:file ID mfc/108lim_m
Z:bill@capeirish.com
Q:180
L:1/8
M:4/4
R:reel
K:G
B2 GA Bcdg|egdB cAAc|BDGB cBcA|(3Bcd gd BGGA|
Bdcd ceAc|(Bdcd cAAc|BDGB cBcA|(3Bcd gd BGga||
bgaf g2 fg|eaag a2 ga|bgaf gfed|cdef g3 a|
bg~g2 ageg|eaag a3 b|[ac']abg agef|gbaf gedc||

